X:1     %Music
B:Patterson, D W, 1979, The Shaker Spiritual, Princeton University Press, New Jersey
Z:Daniel W Patterson
F:http://www.folkinfo.org/songs
T:Father James's Song No 2
C:Father James or Father Elizur Goodrich
N:Remarks :     %Tune infos
Q:1/4=80  
M:4/4     %Meter
L:1/8     %
K:Eb
(E3F) {F}G4 |(C3D) E2 C2 |{E}B,4 HB,4 |(E3F) G4 |
{G}c4 (BG3) |HF4 (E3F) |{F}G4 (C3D) |E2 C2 B,4 |
M:3/4     %Meter
L:1/8     %
B,6 |[M:4/4][L:1/8] (E3F) G4 |{B}c4 (BG3) |F4 HE4 |:
(3:2B3cd2 {d}e4 |(B3c) B4 |G4 (GHF3) |e4 d4 |
{d}e3 c B4 | [M:3/4][L:1/8] c6 |[M:4/4][L:1/8] ({d}e3c) B4 |(G3F) E4 |
F4 E4 |C4 HB,4 |(E3F) G4 |{B}c4 (BG3) |F4 E4 :|